X:1
T:Title
%%score ( 1 2 ) ( 3 4 )
L:1/8
Q:1/4=120
M:4/4
K:C
V:1 treble nm="Tenor" snm="T"
V:2 treble 
V:3 bass nm="Bass" snm="B"
V:4 bass 
V:1
 F2 | c2 G2 c2 d2 | e2 dc d2 gf | e2 c2 f2 ed | e6 dc | B2 c2 d2 g2 | g2 ^f2 g2 =f_e | %7
w: 1.Re-|joice, re- joice in|Christ your- * King, cast- *|earth- tly fears a- *|way; and- *|let the joy- ful|an- them ring, the- *|
w: 2.Re-|joice, re- joice an-|gel- ic- * hosts, in- *|heav'n- ly cho- rus- *|swell; Arch- *|an- gels sound the|joy- ful boast, our- *|
 d2 _B2 B2 A2 | G6 G2 | B2 c2 d2 B2 | c2 d2 _e2 dc | _B2 c2 d2 d2 | G6 g2 | _ag fa gf _eg | %14
w: Lord is ris'n to-|day. The|pow'rs of hell with|ven- geange old man's- *|ser- vi- tude did|win. But|God- * the- * Son- * in- *|
w: tri- umph o- ver|hell. Sing|Vir- tues, Prince- doms|cry the hymn, sing- *|Pow'rs, Do- min- ions,|Thrones. Let|Che- * ru- * bim- * and- *|
 f_e df ed ce | d2 c2 _B2 c2 | d6 G2 | c2 G2 c2 f2 | e2 dc d2 gf | e2 c2 f2 ed | e6 dc | %21
w: mer- * cy- * bold- * did- *|free the world from|sin. Let|al- le- lu- ias|fill the- * air, let- *|all the earth pro- *|claim the- *|
w: Se- * ra- * phim- * re- *|ply in won- drous|tones: To|Fa- ther, Son and|Spi- rit- * blest, to- *|God- head One and- *|Three, to- *|
 B2 c2 d2 g2 | (g2 ^f2) g2 =f_e | d2 _B2 B2 A2 | G6 G2 | B2 c2 d2 gf | _ed cB c2 c2 | d2 d2 d2 d2 | %28
w: ev- er glo- rious|Sa- * viour, from- *|whom re- demp- tion|came; whose|ma- jes- ty be- *|yond- * com- * pare does|cause us to ex-|
w: Wis- dom ev- er|ma- ni- fest, un- *|end- ing glo- ry|be; whose|ma- jes- ty we- *|do- * a- * test through-|out e- ter- ni-|
 d6 gf | (_e2 d2) c2 dc | (_B2 A2) G2 gf | _e2 fe d3 c | c6 z2 |] %33
w: claim: Al- le-|lu- * ia, Al- le-|lu- * ia, Al- le-|lu, Al- le- lu- *|ia!|
w: ty. _ _|Al- le- lu- ia, _|Al- le- lu- ia, _|Al- * * le- lu-|ia!|
V:2
 G2 | G2 G2 G2 G2 | G2 A2 B2 B2 | c2 c2 d2 B2 | c6 A2 | G2 A2 B2 c2 | d2 c2 d2 c2 | G2 G2 G2 ^F2 | %8
 G6 G2 | G2 A2 B2 G2 | G2 B2 c2 _B2 | G2 G2 _B2 A2 | G6 B2 | d2 d2 _e2 e2 | B2 B2 c2 c2 | %15
 G2 _E2 G2 ^F2 | G6 G2 | G2 G2 G2 d2 | c2 A2 B2 B2 | c2 A2 B2 B2 | c6 A2 | G2 A2 B2 c2 | %22
 (d2 c2) d2 c2 | G2 G2 G2 ^F2 | G6 G2 | G2 A2 B2 B2 | G2 G2 G2 G2 | GD ^F2 GA F2 | F6 z2 | %29
 =c2 G2 _E2 F2 | G2 D2 G2 _B2 | (c2 dc) B3 G | G6 z2 |] %33
V:3
 G,F, | E,2 E,2 E,2 F,2 | G,2 F,2 G,2 G,2 | G,2 A,2 A,2 G,2 | G,6 F,2 | G,2 ^F,2 G,2 E,2 | %6
w: ||||||
 G,2 A,2 B,2 A,2 | G,2 G,2 _E,2 D,2 | G,6 G,2 | G,2 E,2 F,2 G,2 | G,2 G,2 G,2 G,2 | %11
w: |||||
 G,2 G,2 G,2 ^F,2 | G,6 G,2 | F,2 B,2 C2 C2 | G,2 G,2 G,2 G,2 | G,2 G,2 F,2 A,2 | B,A, G,4 F,2 | %17
w: ||||||
 E,2 E,2 E,2 G,2 | G,2 F,2 G,2 G,2 | G,2 A,2 G,2 F,2 | G,6 F,2 | G,2 ^F,2 G,2 E,2 | %22
w: |||||
 G,2 A,2 B,2 A,2 | G,2 G,2 _E,2 D,2 | G,6 G,F, | F,2 ^F,2 G,2 G,2 | E,2 F,2 _G,2 =G,2 | %27
w: |||||
 G,2 A,2 B,2 A,2 | B,6 z2 |"^Al -""^le -""^lu -" z G,,A,,B,, C,2 x2 | %30
w: ||Al- le- lu- ia,|
"^ia,""^Al -""^le -""^lu -" D2 z2 z D_B,A, |"^ia,""^Al -""^le -""^lu -" G,2 G,2 G,2 F,2 | %32
w: _||
"^ia!" E,6 z2 |] %33
w: |
V:4
 G,F, | C,2 C,2 C,2 B,,2 | C,2 F,2 G,2 D,2 | E,2 E,2 B,,2 G,,2 | C,6 F,2 | G,2 ^F,2 G,2 E,2 | %6
w: ||||||
 B,,2 D,2 G,,2 A,,2 | _B,,2 D,2 _E,2 D,2 | G,6 G,F, | E,2 E,2 B,,2 G,F, | _E,2 B,,2 C,2 G,2 | %11
w: |||||
 G,2 _E,2 _B,,2 D,2 | G,6 G,2 | F,2 B,2 C2 C,2 | G,2 G,2 G,2 _E,2 | _B,,2 C,2 D,2 D,2 | B,,6 B,,2 | %17
w: ||||||
 C,2 C,2 C,2 B,,2 | C,2 F,2 G,2 D,2 | E,2 E,2 G,2 G,,2 | C,6 F,2 | G,2 ^F,2 G,2 E,2 | %22
w: |||||
 B,,2 D,2 G,,2 A,,2 | _B,,2 D,2 _E,2 D,2 | G,6 B,,2 | D,2 D,2 B,,2 D,2 | C,2 B,,2 A,,2 A,,2 | %27
w: |||||
 B,,2 D,^F, G,2 D,2 | G,6 z2 | x4 z G,A,B, | z D,E,^F, G,2 z2 | z G,,B,,C, D,2 G,,2 | C,6 z2 |] %33
w: |||Al- le- lu- ia,|Al- * * le- *|ia!|

